X:547
T:BAdd547-  Venus and Adonis
S:H. E. Rollins, PMLA 38, from BL MS 38,599. Treble only
Q:1/4=50
L:1/2
M:4/2
K:F
FGAc|BAG2|FGAB|G2F2|CCDE|\
FGA(B|B)c2B|AG2(F|F)GGG|\
GFED|CGAB|c2B2|A2G2|\
zzzc|f2e2|d2c2|BAGG|.(F2F2)|]

